src/actions/24/embosstool.svg

<svg xmlns="http://www.w3.org/2000/svg" viewBox="0 0 24 24">
    <defs id="defs3051">
        <style id="current-color-scheme" type="text/css">
            .ColorScheme-Text{color:#050505;opacity:.7}
        </style>
    </defs>
    <path d="M4 4v14h14V4H4zm1 1h12v12H5V5zm3 3v6h6V8H8zm1 1h4v4H9V9z" class="ColorScheme-Text" style="fill:currentColor;fill-opacity:1;stroke:none" transform="translate(1 1)"/>
    <path d="M3 3v16h16V3H3zm1 1h14v14H4V4zm3 3v8h8V7H7zm1 1h6v6H8V8z" class="ColorScheme-Text" style="fill:currentColor;fill-opacity:.5;stroke:none" transform="translate(1 1)"/>
</svg>

<svg xmlns="http://www.w3.org/2000/svg" viewBox="0 0 24 24">
  <defs id="defs3051">
    <style type="text/css" id="current-color-scheme">
      .ColorScheme-Text {
        color:#363636;
      }
      </style>
  </defs><g transform="translate(1,1)">
 <path 
     style="fill:currentColor;fill-opacity:1;stroke:none" 
     d="M 4 4 L 4 18 L 18 18 L 18 4 L 4 4 z M 5 5 L 17 5 L 17 17 L 5 17 L 5 5 z M 8 8 L 8 14 L 14 14 L 14 8 L 8 8 z M 9 9 L 13 9 L 13 13 L 9 13 L 9 9 z "
     class="ColorScheme-Text"
     />
 <path 
     style="fill:currentColor;fill-opacity:0.5;stroke:none" 
     d="M 3 3 L 3 4 L 3 18 L 3 19 L 18 19 L 19 19 L 19 18 L 19 4 L 19 3 L 18 3 L 4 3 L 3 3 z M 4 4 L 18 4 L 18 18 L 4 18 L 4 4 z M 7 7 L 7 8 L 7 14 L 7 15 L 15 15 L 15 14 L 15 8 L 15 7 L 14 7 L 8 7 L 7 7 z M 8 8 L 14 8 L 14 14 L 8 14 L 8 8 z "
     class="ColorScheme-Text"
     />
</g></svg>
